src/client/app/auth/assets/icon.svg

<svg xmlns="http://www.w3.org/2000/svg" style="isolation:isolate" width="512" height="512"><defs><clipPath id="a"><path d="M0 0h512v512H0z"/></clipPath></defs><g clip-path="url(#a)"><clipPath id="b"><path fill="#FFF" d="M0 0h512v512H0z"/></clipPath><g clip-path="url(#b)"><path d="M190.093 359.243c-22.17.077-41.212-13.28-50.193-28.834-4.796-6.794-14.283-9.211-14.418 0v42.53c0 17.087-6.229 31.86-18.688 44.319-12.104 12.104-26.877 18.155-44.32 18.155-17.087 0-31.86-6.051-44.319-18.155C6.052 404.799 0 390.026 0 372.939V139.061c0-13.171 3.738-25.096 11.213-35.776 7.832-11.035 17.799-18.689 29.903-22.96 6.763-2.492 13.883-3.738 21.358-3.738 19.223 0 35.242 7.475 48.057 22.426 6.764 7.476 10.68 11.392 11.748 11.748 0 0 50.764 61.384 52.188 62.452 1.424 1.068 5.606 9.233 15.626 9.233 10.019 0 14.736-8.165 16.16-9.233 1.423-1.068 52.187-62.452 52.187-62.452.356.356 4.094-3.56 11.214-11.748 13.171-14.951 29.368-22.426 48.591-22.426 7.119 0 14.239 1.246 21.358 3.738 12.104 4.271 21.893 11.925 29.369 22.96 7.831 10.68 11.747 22.605 11.747 35.776v233.878c0 17.087-6.23 31.86-18.689 44.319-12.103 12.104-26.876 18.155-44.319 18.155-17.087 0-31.86-6.051-44.32-18.155-12.103-12.459-18.154-27.232-18.154-44.319v-42.53c-1.053-11.607-11.312-4.293-14.952 0-9.611 17.799-28.023 28.758-50.192 28.834zm267.442-174.795q-22.426 0-38.445-15.485-15.485-16.019-15.485-38.445 0-22.427 15.485-37.912 16.019-16.019 38.445-16.019 22.427 0 38.446 16.019Q512 108.091 512 130.518q0 22.426-16.019 38.445-16.019 15.485-38.446 15.485zm.534 10.68q22.427 0 37.912 16.019Q512 227.166 512 249.592v131.89q0 22.427-16.019 38.446-15.485 15.485-37.912 15.485-22.426 0-38.445-15.485-16.019-16.019-16.019-38.446v-131.89q0-22.426 16.019-38.445 16.019-16.019 38.445-16.019z" fill-rule="evenodd" fill="#9D9D9D"/></g></g></svg>

<?xml version="1.0" standalone="no"?><!-- Generator: Gravit.io --><svg xmlns="http://www.w3.org/2000/svg" xmlns:xlink="http://www.w3.org/1999/xlink" style="isolation:isolate" viewBox="0 0 512 512" width="512" height="512"><defs><clipPath id="_clipPath_P6eAE2OaBltOJ3gHGVajfqsOnfv4xIns"><rect width="512" height="512"/></clipPath></defs><g clip-path="url(#_clipPath_P6eAE2OaBltOJ3gHGVajfqsOnfv4xIns)"><clipPath id="_clipPath_P6q7MZAUp3XpQhVgs2GuAbegX9v4gkom"><rect x="0" y="0" width="512" height="512" transform="matrix(1,0,0,1,0,0)" fill="rgb(255,255,255)"/></clipPath><g clip-path="url(#_clipPath_P6q7MZAUp3XpQhVgs2GuAbegX9v4gkom)"><g id="Group"><g id="g4502"><g id="g5125"><g id="text4489"><path d=" M 190.093 359.243 C 167.923 359.32 148.881 345.963 139.9 330.409 C 135.104 323.615 125.617 321.198 125.482 330.409 L 125.482 372.939 C 125.482 390.026 119.253 404.799 106.794 417.258 C 94.69 429.362 79.917 435.413 62.474 435.413 C 45.387 435.413 30.614 429.362 18.155 417.258 C 6.052 404.799 0 390.026 0 372.939 L 0 139.061 C 0 125.89 3.738 113.965 11.213 103.285 C 19.045 92.25 29.012 84.596 41.116 80.325 C 47.879 77.833 54.999 76.587 62.474 76.587 C 81.697 76.587 97.716 84.062 110.531 99.013 C 117.295 106.489 121.211 110.405 122.279 110.761 C 122.279 110.761 173.043 172.145 174.467 173.213 C 175.891 174.281 180.073 182.446 190.093 182.446 C 200.112 182.446 204.829 174.281 206.253 173.213 C 207.676 172.145 258.44 110.761 258.44 110.761 C 258.796 111.117 262.534 107.201 269.654 99.013 C 282.825 84.062 299.022 76.587 318.245 76.587 C 325.364 76.587 332.484 77.833 339.603 80.325 C 351.707 84.596 361.496 92.25 368.972 103.285 C 376.803 113.965 380.719 125.89 380.719 139.061 L 380.719 372.939 C 380.719 390.026 374.489 404.799 362.03 417.258 C 349.927 429.362 335.154 435.413 317.711 435.413 C 300.624 435.413 285.851 429.362 273.391 417.258 C 261.288 404.799 255.237 390.026 255.237 372.939 L 255.237 330.409 C 254.184 318.802 243.925 326.116 240.285 330.409 C 230.674 348.208 212.262 359.167 190.093 359.243 Z  M 457.535 184.448 Q 435.109 184.448 419.09 168.963 Q 403.605 152.944 403.605 130.518 Q 403.605 108.091 419.09 92.606 Q 435.109 76.587 457.535 76.587 Q 479.962 76.587 495.981 92.606 Q 512 108.091 512 130.518 Q 512 152.944 495.981 168.963 Q 479.962 184.448 457.535 184.448 Z  M 458.069 195.128 Q 480.496 195.128 495.981 211.147 Q 512 227.166 512 249.592 L 512 381.482 Q 512 403.909 495.981 419.928 Q 480.496 435.413 458.069 435.413 Q 435.643 435.413 419.624 419.928 Q 403.605 403.909 403.605 381.482 L 403.605 249.592 Q 403.605 227.166 419.624 211.147 Q 435.643 195.128 458.069 195.128 Z " fill-rule="evenodd" fill="rgb(157,157,157)"/></g></g></g></g></g></g></svg>
